X: 1775
T: Seyret İzar-ı
C: Taşçızâde Recep Çelebi
O: Turkey
F: http://compmusic.upf.edu/node/140
N: mahur--beste--lenkfahte--seyret_izar-i--tascizade_recep_celebi
N: makam= mahur
N: form= beste
N: usul= lenkfahte = 10/4
M: 10/4
L: 1/16
K: C ^9/8f   
Q: 1/4=72
%%MIDI tuningsystem comma53
g4 e2f2 g6f2 g2f2 g4 z2g4a2 a2g2 f2e2  | \
w:   | 
d4 e2f2 g6f2 e2d2 e2f2 g2f2 b2ag g4 z4  | 
w:   | 
z4 g4 d'2c'2 c'2b2 b2a2 a4 z2a4b2 a2g2 f2e2  | \
w:   | 
d4 e2f2 g6f2 f2e2 e2d2 ^c2d2 e2=f2 edd4z4g4e2 ^9/8f2g6 f2g2 f2g4z2 f2g2 a2b2 a2g2  | 
w:   | 
f2e2 d4 e2f2 g6f2 fed2 e2f2 g2f2 b2ag g4  | \
w:   | 
z4 z4 g4 d'2c'2 c'2b2 b2a2 a4 z2g4b2 a2g2  | 
w:   | 
f2e2 d4 e2f2 a2g2 =f2e2 e2d4c2 d2e4d2 dccB  | \
w:   | 
c4 z4 G4 c6B2 d2c2 B2c4z2 B2c2 d2d2  | 
w:   | 
c2B2 A2G4A2 B2d2 c2B2 A2B3AG2 F2G8G4z4c4G4c6 ^1/4B2d2 c2B2 c4 z2B2 c2e2  | 
w:   | 
d2c2 B2A2 ^G2A2 ^1/4B2c2 e2d2 c2B2 d2c2 B2A2 c3B A2G2  | \
w:   | 
A8 z4 g4 d'2c'2 c'2b2 b2a2 a4 z2a4b2  | 
w:   | 
a2g2 f2e2 d4 e2f2 g6f2 f2e2 e2d2 ^c2d2 e2=f2  | \
w:   | 
edd4z4g4e2 f2g6 f2g2 f2g4z2 f2g2  | 
w:   | 
a2b2 a2g2 f2e2 d4 e2f2 g6f2 fed2 e2f2 g2f2  | \
w:   | 
b2ag g4 z4 z4 g4 d'2c'2 c'2b2 b2a2 a4 z2g4b2 a2g2 f2e2 d4 e2f2 a2g2 =f2e2 e2d4c2 d2e4d2 dccB c4 z4 G4 c6B2 d2c2 B2c4z2  | 
w:   | 
B2c2 d2d2 c2B2 A2G4A2 B2d2 c2B2 A2B3AG2 F2G8G4z4|
w:   | 


